svg/Filled/cloud-checkmark_filled.svg

<svg viewBox="0 0 24 24" xmlns="http://www.w3.org/2000/svg" width="24" height="24"><path fill-rule="evenodd" d="M11.89 3.43c3.31 0 6.09 2.34 6.74 6.04a5.6 5.6 0 0 1 2.4 1.02 4.2 4.2 0 0 1 1.68 3.43c0 1.5-.57 2.68-1.55 3.46a5.6 5.6 0 0 1-3.49 1.08H6.92c-3.14 0-5.86-2.23-5.86-5.53 0-1.67.64-3 1.68-3.95.88-.8 2-1.29 3.19-1.5a6.4 6.4 0 0 1 5.96-4.05m2.36 5.42a.9.9 0 0 0-1.19.2l-.05.08-2.34 3.71-.8-1A.9.9 0 0 0 8.4 12.9l.05.08.9 1.1q.16.21.33.4c.1.1.26.25.48.34l.1.04q.52.16 1.03-.06l.1-.05q.3-.2.43-.4.15-.2.29-.43l2.41-3.83.05-.08a.9.9 0 0 0-.33-1.16" clip-rule="evenodd"/></svg>

<svg viewBox="0 0 24 24" xmlns="http://www.w3.org/2000/svg" width="24" height="24"><path fill-rule="evenodd" d="M11.89 3.43c3.31 0 6.09 2.34 6.74 6.04a5.6 5.6 0 0 1 2.4 1.02 4.2 4.2 0 0 1 1.68 3.43c0 1.5-.57 2.68-1.55 3.46a5.6 5.6 0 0 1-3.49 1.08H6.92c-3.14 0-5.86-2.23-5.86-5.53 0-1.67.64-3 1.68-3.95.88-.8 2-1.29 3.19-1.5a6.4 6.4 0 0 1 5.96-4.05M14.25 8.85A.9 .9 0 0 0 13.06 9.05L10.67 12.84L9.87 11.84A.9 .9 0 0 0 8.4 12.9L9.35 14.08Q9.51 14.29 9.68 14.48C9.78 14.58 9.94 14.73 10.16 14.82L10.26 14.86Q10.78 15.02 11.29 14.8L11.39 14.75Q11.69 14.55 11.82 14.35Q11.97 14.15 12.11 13.92L14.57 10.01A.9 .9 0 0 0 14.24 8.85" clip-rule="evenodd"/></svg>
